X:471
T: ICH WOLLT EINMAL RECHT FRUEH AUFSTEHN
N: F0886
O: Europa, Mitteleuropa, Deutschland
R: erzaehlendes Volks - Lied, Ballade, Tod
M: 3/4
L: 1/16
K: F
 | C4F4G2B2 | A4G4F4
c4d2c2B2A2 | A4G4z4
C4F4G2B2 | A4G4F4
c4d2c2B2A2 | A4G4z4
c3BA4c4 | d2c2B2A2B4
B3AG4B4 | c2B2A2G2A4
d2cBA4G4 | F8z4

